X:31
T:Davie Work
C: J. Scott Skinner
R: reel
M:2/4
L:1/16
Z: Jason R. Fruit <jason@gmail.com>
K:A
E | {G}!>![AA]2cA (GA).B.c | dFBA GBeg | {g}a2(ga) .f.e.d.c | dBed [cE]A[AE] :|
g | aAag fedc | bBba gefg | aAag fedc | dfeg aA[AE]g |
aAag fedc | bBba gfed | cAdB ecfd | eagb {g}aA!fermata!"^Last."A |]

